X: 165
T: REEL: Walter Sammon's Grandmother
C: C: Trad.; S: ThZCh; Patrick Street
C: Set Leaders: Oliushka, Anton
Z: Anton Zille ed.; shanachie at The Session
N: https://thesession.org/members/26966/sets/76523
R: Reel
M: 4/4
L: 1/8
Q: 1/2=100
K: Dmaj
FAAB A2dB|AFDE FEE2|FAAB A2dB|AFEG FDD2|
FAAB ABdB|AFDE FEE2|FAAB A2dB|AFEG FDD2||
FAdA BAdA|FAdA BEE2|FAdA BAdB|AFEG FDD2|
FAdA BAdA|FAdA BEE2|dcBA BcdB|AFEG FDD2||

